X: 632
T: Don Side -- Strathspey
R: strathspey
B: Robert Bremner "A Collection of Scots Reels or Country Dances" 1757 p.63 #2
S: http://imslp.org/wiki/A_Collection_of_Scots_Reels_or_Country_Dances_(Bremner,_Robert)
Z: 2013 John Chambers <jc:trillian.mit.edu>
M: C
L: 1/16
K: G
% - - - - - - - - - - - - - - - - - - - - - - - - -
V: 1
A2 |\
GGG2 B3G TA3GE2A2 | GGG2 B3G TA3GB2G2 |\
c3AB3G TA3GE2e2 | d3cTB3A B2G2-G2 :|
|: (e2 |\
g2)d2g2B2 TA3GE2(e2 | g3)dg3B g3dg3a |\
(bage g3)B TA3GE2e2 | d3cTB3A B3G-G2 :|
|: a2 |\
ggg2 b3g Ta3ge2a2 | ggg2 b3g a3gb3g |\
(baga b3)g Ta3ge2g2 | d3cTB3A B3G-G2 :|
|: (EF |\
G3)DB,3D E2A,2A,2(EF | G3)DB,3D G,3DB,3D |\
C3EB,3D E2A,2-A,2E2 | (GFED) TB,3A, B,2G,2-G,2 :|
% - - - - - - - - - - - - - - - - - - - - - - - - -
V: 2 clef=bass middle=d
z2 |\
g4g4 e4e4 | g4g4 g4g4 |\
a4g4 e4e4 | d4d4 G4G2 :|\
|: z2 |\
g4g4 a4a4 |
g4g4 g4g4 |\
g4g4 e4e4 | d4d4 G4G2 :|\
|: z2 |\
g4g4 a4a4 | g4g4 g4g4 |
g4g4 e4e4 |
d4d4 G4G2 :|\
|: z2 |\
G4G4 A4A4 | G4G4 G4G4 |\
G4G4 A4A4 | d4d4 G4G2 :|
% - - - - - - - - - - - - - - - - - - - - - - - - -

%%sep 1 1 500
%%sep 1 1 500
